X:1
T:Ach Gott und Herr
T:Ach Gott und Herr
T:BWV 255
T:Johann Sebastian Bach
C:Johann Sebastian Bach
%%score 1 2 3 4
L:1/8
Q:1/4=96
M:4/4
K:C
V:1 treble 
V:2 treble 
V:3 bass 
V:4 bass 
V:1
 c2 | B2 A2 G2 G2 | A2 B2 !fermata!c2 d2 | c2 B2 A2 Bc | A4 !fermata!G2 c2 | B2 c2 d2 d2 | %6
 e2 dc !fermata!d2 G2 | A2 B2 cdef x8 | d4 !fermata!c4 |] %9
V:2
 G2 | G2 ^F2 D2 ED | C2 D2 !fermata!E2 G2- | G^F G2 F2 G2- | G2 ^F2 !fermata!D2 G2 | F2 G2 G2 G2 | %6
 G2 F2 !fermata!G2 G2 | D2 D2 C3 A G3 F !fermata!E4 | x8 |] %9
V:3
 E2 | D3 C B,2 C_B, | A,G, F,2 !fermata!G,2 B,2 | C2 D2 D2 D2 | E2 DC !fermata!B,2 C2 | %5
 D2 E2 B,2 B,2 | C2 C2 !fermata!B,2 C2 | C2 B,2 EFGC x8 | C2 B,2 !fermata!G,4 |] %9
V:4
 C,2 | G,2 D,2 G,,2 C,2 | F,E, D,2 !fermata!C,2 G,,2 | A,,2 B,,C, D,2 G,2 | %4
 C,2 D,2 !fermata!G,,2 E,2 | D,2 C,2 G,2 G,2 | CB, A,2 !fermata!G,2 E,2 | %7
 ^F,2 ^G,2 A,2 =G,=F, G,2 G,,2 !fermata!C,4 | x8 |] %9

